大富翁/coin.svg

<svg height="30.0px" stroke-miterlimit="10" style="fill-rule:nonzero;clip-rule:evenodd;stroke-linecap:round;stroke-linejoin:round;" version="1.1" viewBox="0 0 30 30" width="30.0px" xml:space="preserve" xmlns="http://www.w3.org/2000/svg" xmlns:xlink="http://www.w3.org/1999/xlink">
<defs/>
<path d="M15 0.833333C7.17597 0.833333 0.833333 7.17597 0.833333 15C0.833333 22.824 7.17597 29.1667 15 29.1667C22.824 29.1667 29.1667 22.824 29.1667 15C29.1667 7.17597 22.824 0.833333 15 0.833333Z" fill="#f6d397" fill-rule="nonzero" opacity="1" stroke="none"/>
<path d="M15 5C9.47715 5 5 9.47715 5 15C5 20.5228 9.47715 25 15 25C20.5228 25 25 20.5228 25 15C25 9.47715 20.5228 5 15 5Z" fill="#f9e3ae" fill-rule="nonzero" opacity="1" stroke="none"/>
<path d="M19.9375 6.3125C19.7525 6.205 19.5608 6.10833 19.3692 6.01333L6.01167 19.3525C6.1075 19.5458 6.205 19.7383 6.3125 19.925C6.675 20.5742 7.1125 21.1767 7.61083 21.7283L21.735 7.61083C21.1858 7.1125 20.585 6.67333 19.9375 6.3125ZM16.3375 5.09333C15.8942 5.03083 15.4475 4.99917 15 5C14.8033 5 14.6117 5.01833 14.4175 5.02917L6.73083 12.6917L5.03083 14.3917C5.01833 14.5942 5 14.795 5 15C5.005 15.8225 5.11417 16.6383 5.31167 17.4342L17.4425 5.30417C17.0783 5.21333 16.71 5.1425 16.3375 5.09333ZM24.54 11.9975C24.4475 11.7025 24.3417 11.4142 24.2233 11.1317C24.2183 11.12 24.2142 11.1092 24.21 11.0975C23.97 10.5325 23.6775 9.99667 23.3425 9.49083C23.29 9.4125 23.235 9.33583 23.1808 9.25917C23.1175 9.17 23.05 9.08417 22.9842 8.99667L22.2317 9.74667L9.0025 22.9883C10.6742 24.2458 12.7467 25 15 25L25 15C25 13.9742 24.8442 12.985 24.5575 12.0533C24.5517 12.035 24.5458 12.0158 24.54 11.9975Z" fill="#ffefca" fill-rule="nonzero" opacity="1" stroke="none"/>
<path d="M14.1667 8.33333L14.1667 9.16667C12.3258 9.16667 10.8333 10.6592 10.8333 12.5C10.8333 14.3408 12.3258 15.8333 14.1667 15.8333L15.8333 15.8333C16.7542 15.8333 17.5 16.5792 17.5 17.5C17.5 18.4208 16.7542 19.1667 15.8333 19.1667L15.8333 17.5C15.8333 17.04 15.46 16.6667 15 16.6667C14.54 16.6667 14.1667 17.04 14.1667 17.5L14.1667 19.1667C13.2458 19.1667 12.5 18.4208 12.5 17.5C12.5 17.04 12.1267 16.6667 11.6667 16.6667C11.2067 16.6667 10.8333 17.04 10.8333 17.5C10.8333 19.3408 12.3258 20.8333 14.1667 20.8333L14.1667 21.6667C14.1667 22.1267 14.54 22.5 15 22.5C15.46 22.5 15.8333 22.1267 15.8333 21.6667L15.8333 20.8333C17.6742 20.8333 19.1667 19.3408 19.1667 17.5C19.1667 15.6592 17.6742 14.1667 15.8333 14.1667L15.8333 12.5C15.8333 12.04 15.46 11.6667 15 11.6667C14.54 11.6667 14.1667 12.04 14.1667 12.5L14.1667 14.1667C13.2458 14.1667 12.5 13.4208 12.5 12.5C12.5 11.5792 13.2458 10.8333 14.1667 10.8333L15.8333 10.8333C16.7542 10.8333 17.5 11.5792 17.5 12.5C17.5 12.96 17.8733 13.3333 18.3333 13.3333C18.7933 13.3333 19.1667 12.96 19.1667 12.5C19.1667 10.6592 17.6742 9.16667 15.8333 9.16667L15.8333 8.33333C15.8333 7.87333 15.46 7.5 15 7.5C14.54 7.5 14.1667 7.87333 14.1667 8.33333Z" fill="#8d6c9f" fill-rule="nonzero" opacity="1" stroke="none"/>
<path d="M15 30C6.72917 30-3.55271e-15 23.2708-3.55271e-15 15C-3.55271e-15 6.72917 6.72917 0 15 0C23.2708 0 30 6.72917 30 15C30 23.2708 23.2708 30 15 30ZM15 1.66667C7.64833 1.66667 1.66667 7.64833 1.66667 15C1.66667 22.3517 7.64833 28.3333 15 28.3333C22.3517 28.3333 28.3333 22.3517 28.3333 15C28.3333 7.64833 22.3517 1.66667 15 1.66667Z" fill="#8d6c9f" fill-rule="nonzero" opacity="1" stroke="none"/>
<path d="M20.8325 7.7275C20.6642 7.7275 20.4942 7.67667 20.3467 7.57083C19.8558 7.2175 19.3417 6.91583 18.8183 6.67583C18.4 6.48333 18.2167 5.98833 18.41 5.57C18.6017 5.15167 19.095 4.96833 19.515 5.16083C20.135 5.44667 20.7433 5.8025 21.32 6.21833C21.6933 6.4875 21.7783 7.00833 21.51 7.38167C21.3467 7.6075 21.0917 7.7275 20.8325 7.7275Z" fill="#8d6c9f" fill-rule="nonzero" opacity="1" stroke="none"/>
<path d="M15 25.8333C9.02667 25.8333 4.16667 20.9733 4.16667 15C4.16667 9.02667 9.02667 4.16667 15 4.16667C15.305 4.16667 15.605 4.18667 15.9025 4.21167C16.3608 4.24917 16.7017 4.6525 16.6642 5.11083C16.625 5.56917 16.2317 5.90917 15.7642 5.8725C15.5117 5.85167 15.2583 5.83333 15 5.83333C9.94583 5.83333 5.83333 9.94583 5.83333 15C5.83333 20.0542 9.94583 24.1667 15 24.1667C20.0542 24.1667 24.1667 20.0542 24.1667 15C24.1667 13.1942 23.6383 11.4458 22.64 9.945C22.3842 9.56167 22.4883 9.04417 22.8717 8.78917C23.2533 8.53417 23.7717 8.63833 24.0267 9.02083C25.2092 10.7967 25.8333 12.8642 25.8333 15C25.8333 20.9733 20.9733 25.8333 15 25.8333Z" fill="#8d6c9f" fill-rule="nonzero" opacity="1" stroke="none"/>
</svg>

<svg height="30" stroke-miterlimit="10" width="30" viewBox="0 0 30 30" xmlns="http://www.w3.org/2000/svg" clip-rule="evenodd" stroke-linecap="round" stroke-linejoin="round"><path d="M15 .833C7.176.833.833 7.176.833 15S7.176 29.167 15 29.167 29.167 22.824 29.167 15 22.824.833 15 .833z" fill="#f6d397"/><path d="M15 5C9.477 5 5 9.477 5 15s4.477 10 10 10 10-4.477 10-10S20.523 5 15 5z" fill="#f9e3ae"/><path d="M19.938 6.313a9.73 9.73 0 00-.569-.3L6.012 19.353c.096.193.193.385.3.572.363.65.8 1.252 1.299 1.803L21.735 7.611a9.728 9.728 0 00-1.797-1.298zm-3.6-1.22A9.453 9.453 0 0015 5c-.197 0-.388.018-.582.03L6.73 12.691l-1.7 1.7C5.018 14.594 5 14.795 5 15c.005.822.114 1.638.312 2.434l12.13-12.13a9.936 9.936 0 00-1.105-.21zm8.202 6.905a9.905 9.905 0 00-1.197-2.507c-.053-.079-.108-.155-.162-.232-.064-.089-.131-.175-.197-.262l-.752.75-13.23 13.241A9.941 9.941 0 0015 25l10-10c0-1.026-.156-2.015-.442-2.947l-.018-.056z" fill="#ffefca"/><path d="M14.167 8.333v.834a3.334 3.334 0 000 6.666h1.666a1.666 1.666 0 110 3.334V17.5a.834.834 0 00-1.666 0v1.667c-.921 0-1.667-.746-1.667-1.667a.834.834 0 00-1.667 0 3.333 3.333 0 003.334 3.333v.834a.834.834 0 001.666 0v-.834a3.333 3.333 0 000-6.666V12.5a.834.834 0 00-1.666 0v1.667a1.666 1.666 0 110-3.334h1.666c.921 0 1.667.746 1.667 1.667a.834.834 0 001.667 0 3.334 3.334 0 00-3.334-3.333v-.834a.834.834 0 00-1.666 0z" fill="#8d6c9f"/><path d="M15 30C6.73 30 0 23.27 0 15S6.73 0 15 0s15 6.73 15 15-6.73 15-15 15zm0-28.333C7.648 1.667 1.667 7.648 1.667 15S7.648 28.333 15 28.333 28.333 22.352 28.333 15 22.352 1.667 15 1.667z" fill="#8d6c9f"/><path d="M20.832 7.728a.83.83 0 01-.485-.157 9.175 9.175 0 00-1.529-.895.833.833 0 11.697-1.515c.62.286 1.228.642 1.805 1.057a.834.834 0 01-.488 1.51z" fill="#8d6c9f"/><path d="M15 25.833c-5.973 0-10.833-4.86-10.833-10.833S9.027 4.167 15 4.167c.305 0 .605.02.902.045a.834.834 0 01-.138 1.66A9.254 9.254 0 0015 5.833c-5.054 0-9.167 4.113-9.167 9.167 0 5.054 4.113 9.167 9.167 9.167 5.054 0 9.167-4.113 9.167-9.167a9.1 9.1 0 00-1.527-5.055.833.833 0 111.387-.924A10.753 10.753 0 0125.833 15c0 5.973-4.86 10.833-10.833 10.833z" fill="#8d6c9f"/></svg>
